Sources/FrostedUI/Resources/Icons.xcassets/sparkle12.imageset/sparkle-12.svg

<svg width="12" height="12" viewBox="0 0 12 12" fill="none" xmlns="http://www.w3.org/2000/svg" data-fui-icon="true">
  <path
    d="M6.09766 1.00391C6.54946 1.04024 6.94366 1.32681 7.11816 1.74512L7.15234 1.83691L7.8916 4.1084L10.1631 4.84766C10.6621 5.01014 11 5.47515 11 6C11 6.52484 10.6621 6.98986 10.1631 7.15234L7.8916 7.8916L7.15234 10.1631C6.98986 10.6621 6.52485 11 6 11C5.47515 11 5.01014 10.6621 4.84766 10.1631L4.1084 7.8916L1.83691 7.15234C1.33786 6.98986 1 6.52485 1 6C1 5.47515 1.33786 5.01014 1.83691 4.84766L4.1084 4.1084L4.84766 1.83691L4.88184 1.74512C5.06881 1.29692 5.50804 1 6 1L6.09766 1.00391ZM5.53418 4.57227C5.38573 5.02823 5.02823 5.38573 4.57227 5.53418L3.14062 6L4.57227 6.46582C5.02823 6.61427 5.38573 6.97177 5.53418 7.42773L6 8.8584L6.46582 7.42773C6.61427 6.97177 6.97177 6.61427 7.42773 6.46582L8.8584 6L7.42773 5.53418C6.97177 5.38573 6.61427 5.02823 6.46582 4.57227L6 3.14062L5.53418 4.57227Z"
    fill="currentColor"
  />
</svg>

<svg xmlns="http://www.w3.org/2000/svg" width="12" height="12" fill="none" data-fui-icon="true" viewBox="0 0 12 12"><path fill="currentColor" d="M6.098 1.004c.451.036.846.323 1.02.741l.034.092.74 2.271 2.271.74a1.212 1.212 0 0 1 0 2.304l-2.271.74-.74 2.271a1.212 1.212 0 0 1-2.304 0l-.74-2.271-2.271-.74a1.212 1.212 0 0 1 0-2.304l2.271-.74.74-2.271.034-.092A1.21 1.21 0 0 1 6 1zm-.564 3.568a1.5 1.5 0 0 1-.962.962L3.141 6l1.431.466a1.5 1.5 0 0 1 .962.962L6 8.858l.466-1.43a1.5 1.5 0 0 1 .962-.962L8.858 6l-1.43-.466a1.5 1.5 0 0 1-.962-.962L6 3.141z"/></svg>
